searchLib/artwork/ic_action_search_run.svg

<?xml version="1.0" encoding="UTF-8" standalone="no"?><!-- Generator: Adobe Illustrator 14.0.0, SVG Export Plug-In . SVG Version: 6.00 Build 43363)  -->

<svg xmlns:osb="http://www.openswatchbook.org/uri/2009/osb" xmlns:dc="http://purl.org/dc/elements/1.1/" xmlns:cc="http://creativecommons.org/ns#" xmlns:rdf="http://www.w3.org/1999/02/22-rdf-syntax-ns#" xmlns="http://www.w3.org/2000/svg"
	xmlns:xlink="http://www.w3.org/1999/xlink" xmlns:sodipodi="http://sodipodi.sourceforge.net/DTD/sodipodi-0.dtd" xmlns:inkscape="http://www.inkscape.org/namespaces/inkscape" version="1.1" x="0px" y="0px" width="64" height="64" viewBox="0 0 64 64"
	enable-background="new 0 0 780 650" xml:space="preserve" id="svg4433" inkscape:version="0.91 r13725" sodipodi:docname="ic_action_search_run.svg"><metadata
     id="metadata5887"><rdf:RDF><cc:Work
         rdf:about=""><dc:format>image/svg+xml</dc:format><dc:type rdf:resource="http://purl.org/dc/dcmitype/StillImage" /></cc:Work></rdf:RDF></metadata>
	<defs id="defs5885"><linearGradient
       id="linearGradient19282"
       osb:paint="solid"
       gradientTransform="matrix(0,0,0,0,-596.88918,-437136.36)"><stop
         style="stop-color:#666666;stop-opacity:1;"
         offset="0"
         id="stop19284" /></linearGradient></defs>
	<sodipodi:namedview pagecolor="#ffffff" bordercolor="#666666" borderopacity="1" objecttolerance="10" gridtolerance="10" guidetolerance="10" inkscape:pageopacity="0" inkscape:pageshadow="2" inkscape:window-width="1198" inkscape:window-height="796"
		id="namedview5883" showgrid="false" inkscape:zoom="5.1310363" inkscape:cx="-2.1553965" inkscape:cy="29.254776" inkscape:window-x="764" inkscape:window-y="174" inkscape:window-maximized="0" inkscape:current-layer="svg4433" />
	<g id="Notification" transform="translate(-465.46203,-385.40339)" />
	<g id="Notification-5" transform="translate(-12.09472,-977.40958)" />
	<g transform="translate(-209.12091,-212.59188)" id="zoom-original" inkscape:label="#g6809"><g
       transform="matrix(0.996399,0,0,1,95.08523,-222.9354)"
       id="zoom_1_to_1"><use
         xlink:href="#g5796"
         transform="matrix(1,0,0,0.997925,-0.04089,0.477615)"
         x="0"
         y="0"
         id="use5816"
         width="1250"
         height="1250" /></g></g>
	<g transform="matrix(0.99218952,0,0,1,-207.78421,-212.02938)" id="zoom-half-size" inkscape:label="#g6895"><use
       xlink:href="#g5796"
       height="1250"
       width="1250"
       id="use5818"
       y="0"
       x="0"
       transform="matrix(0.996399,0,0,0.997925,95.044487,-202.45778)" /></g>
	<g id="g11074" transform="matrix(1,0,0,0.99801946,-184.62091,-693.37785)" />
	<g id="g11109" transform="translate(-184.62091,-714.45406)" />
	<g id="g11198" transform="translate(-184.62091,-714.45406)" />
	<g id="g11329" transform="translate(-164.62091,-714.45406)" />
	<g id="zoom-fit-selection" inkscape:label="#zoom_selection" transform="translate(-207.62091,-694.95406)"><g
       transform="translate(0,20)"
       id="g11156"
       inkscape:label="#g11150"><g
         transform="translate(0,19.96825)"
         id="g11158"><g
           transform="matrix(1,0,0,0.99801946,0,21.076212)"
           id="g11160" /></g></g></g>
	<g id="g11563" inkscape:label="#zoom_select" transform="translate(-207.62091,-654.95406)"><g
       inkscape:label="#zoom_selection"
       id="g11565"><g
         inkscape:label="#g11150"
         id="g11567"
         transform="translate(0,20)"><g
           id="g11569"
           transform="translate(0,19.96825)"><g
             id="g11571"
             transform="matrix(1,0,0,0.99801946,0,21.076212)" /></g></g></g></g>
	<g id="g11647" transform="translate(-121.62091,-614.45406)" />
	<g transform="matrix(-1,0,0,1,-82.62091,-614.45406)" id="g11659" />
	<rect style="opacity:0.3;fill:url(#linearGradient19282);fill-opacity:1;stroke:none" id="rect19405" width="0" height="1" x="-66.620911" y="-97.091881" ry="0" />
	<g id="g39728" transform="translate(-184.62091,-714.45406)" />
	<g transform="translate(-580.27739,-387.43563)" id="g39833" />
	<rect style="fill:none;stroke:none" id="rect2999-6" width="66.949417" height="66.949432" x="6.1236548" y="3.0582078" />
	<use transform="translate(48.35119,-59.62603)" x="0" y="0" id="use5704" width="1250" height="1250" xlink:href="#rect4442" />
	<g style="fill:none" transform="matrix(0.90013776,0,0,0.8929798,-302.6647,-186.0671)" id="g14408" />
	<use x="0" y="0" id="use4586" transform="matrix(0.692914,0,0,0.70953374,-268.435,-359.46808)" width="1250" height="1250" xlink:href="#g5772" />
	<use x="0" y="0" id="use4586-2" transform="matrix(0.695835,0,0,0.741921,-284.44081,-364.88188)" width="1250" height="1250" xlink:href="#g5772" />
	<use transform="matrix(0.695835,0,0,0.741921,-240.44081,-367.38188)" x="0" y="0" id="use4589" width="1250" height="1250" xlink:href="#g5772" />
	<use transform="matrix(0.62897517,0,0,1.1624311,-165.6817,-469.60375)" x="0" y="0" id="use4592" width="1250" height="1250" xlink:href="#g5772" />
	<use transform="translate(587.38889,-340.79022)" x="0" y="0" id="use3738" width="1250" height="1250" xlink:href="#rect10675" />
	<use transform="translate(588.35529,-324.06771)" x="0" y="0" id="use4635" width="1250" height="1250" xlink:href="#use5758" />
	<use transform="translate(584.34039,-400.14538)" x="0" y="0" id="use9872" width="1250" height="1250" xlink:href="#g6043" />
	<use height="1250" width="1250" id="use10185" y="0" x="0" transform="translate(629.37219,-339.84368)" xlink:href="#rect10675" />
	<use transform="translate(617.37219,-327.84368)" x="0" y="0" id="use10187" width="1250" height="1250" xlink:href="#rect10675" />
	<use transform="translate(603.38894,-406.18758)" x="0" y="0" id="use9872-0" width="1250" height="1250" xlink:href="#g6043" />
	<use height="1250" width="1250" id="use10185-8" y="0" x="0" transform="translate(648.42074,-345.88588)" xlink:href="#rect10675" />
	<use transform="translate(636.42074,-333.88588)" x="0" y="0" id="use10187-8" width="1250" height="1250" xlink:href="#rect10675" />
	<use style="stroke:url(#linearGradient19282);stroke-opacity:1" height="1250" width="1250" transform="matrix(1.1377421,0,0,1.1399698,396.05605,-336.23633)" id="use5845-6" y="0" x="0" xlink:href="#use5756-0-3" />
	<use style="stroke:url(#linearGradient19282);stroke-opacity:1" height="1250" width="1250" transform="matrix(1.1377421,0,0,1.1399698,391.05636,-329.00786)" id="use5845-6-1" y="0" x="0" xlink:href="#use5756-0-3" />
	<use style="stroke:url(#linearGradient19282);stroke-opacity:1" height="1250" width="1250" transform="matrix(1.1377421,0,0,1.1399698,403.64911,-325.3576)" id="use5845-6-1-9" y="0" x="0" xlink:href="#use5756-0-3" />
	<g id="g31444" inkscape:label="#zoom_selection" transform="translate(-57.62091,-320.95406)"><g
       transform="translate(0,20)"
       id="g31446"
       inkscape:label="#g11150"><g
         transform="translate(0,19.96825)"
         id="g31448"><g
           transform="matrix(1,0,0,0.99801946,0,21.076212)"
           id="g31450" /></g></g></g>
	<text xml:space="preserve" style="font-size:40px;font-style:normal;font-weight:normal;line-height:125%;letter-spacing:0px;word-spacing:0px;fill:#000000;fill-opacity:1;stroke:none;font-family:Sans" x="-458.62091" y="35.908115" id="text19288"
		sodipodi:linespacing="125%"><tspan
       sodipodi:role="line"
       x="-458.62091"
       y="35.908115"
       id="tspan19292" /></text>
	<g id="Notification-4" transform="translate(-390.68312,-978.49268)" />
	<g id="Notification-5-1" transform="translate(62.684187,-1570.4989)" />
	<g transform="translate(-134.342,-805.68117)" id="zoom-original-2" inkscape:label="#g6809"><g
       transform="matrix(0.996399,0,0,1,95.08523,-222.9354)"
       id="zoom_1_to_1-2"><use
         xlink:href="#g5796"
         transform="matrix(1,0,0,0.997925,-0.04089,0.477615)"
         x="0"
         y="0"
         id="use5816-1"
         width="1250"
         height="1250" /></g></g>
	<g transform="matrix(0.99218952,0,0,1,-133.0053,-805.11867)" id="zoom-half-size-1" inkscape:label="#g6895"><use
       xlink:href="#g5796"
       height="1250"
       width="1250"
       id="use5818-2"
       y="0"
       x="0"
       transform="matrix(0.996399,0,0,0.997925,95.044487,-202.45778)" /></g>
	<g id="g11074-07" transform="matrix(1,0,0,0.99801946,-109.842,-1286.4671)" />
	<g id="g11109-3" transform="translate(-109.842,-1307.5434)" />
	<g id="g11198-4" transform="translate(-109.842,-1307.5434)" />
	<g id="g11329-1" transform="translate(-89.842003,-1307.5434)" />
	<g id="zoom-fit-selection-38" inkscape:label="#zoom_selection" transform="translate(-132.842,-1288.0434)"><g
       transform="translate(0,20)"
       id="g11156-7"
       inkscape:label="#g11150"><g
         transform="translate(0,19.96825)"
         id="g11158-7"><g
           transform="matrix(1,0,0,0.99801946,0,21.076212)"
           id="g11160-2" /></g></g></g>
	<g id="g11563-6" inkscape:label="#zoom_select" transform="translate(-132.842,-1248.0434)"><g
       inkscape:label="#zoom_selection"
       id="g11565-6"><g
         inkscape:label="#g11150"
         id="g11567-7"
         transform="translate(0,20)"><g
           id="g11569-9"
           transform="translate(0,19.96825)"><g
             id="g11571-0"
             transform="matrix(1,0,0,0.99801946,0,21.076212)" /></g></g></g></g>
	<g id="g11647-8" transform="translate(-46.842003,-1207.5434)" />
	<g transform="matrix(-1,0,0,1,-7.842003,-1207.5434)" id="g11659-1" />
	<rect style="opacity:0.3;fill:url(#linearGradient19282);fill-opacity:1;stroke:none" id="rect19405-8" width="0" height="1" x="8.1579962" y="-690.18115" ry="0" />
	<g id="g39728-1" transform="translate(-109.842,-1307.5434)" />
	<g transform="translate(-505.49848,-980.52492)" id="g39833-1" />
	<use transform="translate(123.1301,-652.71532)" x="0" y="0" id="use5704-4" width="1250" height="1250" xlink:href="#rect4442" />
	<g style="fill:none" transform="matrix(0.90013776,0,0,0.8929798,-227.88579,-779.15639)" id="g14408-8" />
	<use x="0" y="0" id="use4586-4" transform="matrix(0.692914,0,0,0.70953374,-193.65609,-952.55737)" width="1250" height="1250" xlink:href="#g5772" />
	<use x="0" y="0" id="use4586-2-5" transform="matrix(0.695835,0,0,0.741921,-209.6619,-957.97117)" width="1250" height="1250" xlink:href="#g5772" />
	<use transform="matrix(0.695835,0,0,0.741921,-165.6619,-960.47117)" x="0" y="0" id="use4589-1" width="1250" height="1250" xlink:href="#g5772" />
	<use transform="matrix(0.62897517,0,0,1.1624311,-90.902793,-1062.693)" x="0" y="0" id="use4592-8" width="1250" height="1250" xlink:href="#g5772" />
	<use transform="translate(662.1678,-933.87951)" x="0" y="0" id="use3738-8" width="1250" height="1250" xlink:href="#rect10675" />
	<use transform="translate(663.1342,-917.157)" x="0" y="0" id="use4635-2" width="1250" height="1250" xlink:href="#use5758" />
	<use transform="translate(659.1193,-993.23467)" x="0" y="0" id="use9872-08" width="1250" height="1250" xlink:href="#g6043" />
	<use height="1250" width="1250" id="use10185-9" y="0" x="0" transform="translate(704.1511,-932.93297)" xlink:href="#rect10675" />
	<use transform="translate(692.1511,-920.93297)" x="0" y="0" id="use10187-6" width="1250" height="1250" xlink:href="#rect10675" />
	<use transform="translate(678.16785,-999.27687)" x="0" y="0" id="use9872-0-3" width="1250" height="1250" xlink:href="#g6043" />
	<use height="1250" width="1250" id="use10185-8-2" y="0" x="0" transform="translate(723.19965,-938.97517)" xlink:href="#rect10675" />
	<use transform="translate(711.19965,-926.97517)" x="0" y="0" id="use10187-8-9" width="1250" height="1250" xlink:href="#rect10675" />
	<use style="stroke:url(#linearGradient19282);stroke-opacity:1" height="1250" width="1250" transform="matrix(1.1377421,0,0,1.1399698,470.83496,-929.32562)" id="use5845-6-3" y="0" x="0" xlink:href="#use5756-0-3" />
	<use style="stroke:url(#linearGradient19282);stroke-opacity:1" height="1250" width="1250" transform="matrix(1.1377421,0,0,1.1399698,465.83527,-922.09715)" id="use5845-6-1-98" y="0" x="0" xlink:href="#use5756-0-3" />
	<use style="stroke:url(#linearGradient19282);stroke-opacity:1" height="1250" width="1250" transform="matrix(1.1377421,0,0,1.1399698,478.42802,-918.44689)" id="use5845-6-1-9-5" y="0" x="0" xlink:href="#use5756-0-3" />
	<g id="g31444-5" inkscape:label="#zoom_selection" transform="translate(17.157997,-914.04335)"><g
       transform="translate(0,20)"
       id="g31446-5"
       inkscape:label="#g11150"><g
         transform="translate(0,19.96825)"
         id="g31448-5"><g
           transform="matrix(1,0,0,0.99801946,0,21.076212)"
           id="g31450-6" /></g></g></g>
	<text xml:space="preserve" style="font-style:normal;font-weight:normal;font-size:40px;line-height:125%;font-family:Sans;letter-spacing:0px;word-spacing:0px;fill:#000000;fill-opacity:1;stroke:none" x="-383.84201" y="-557.18115" id="text19288-6"
		sodipodi:linespacing="125%"><tspan
       sodipodi:role="line"
       x="-383.84201"
       y="-557.18115"
       id="tspan19292-8" /></text>
	<path style="fill:#c0c0c0;fill-opacity:1"
		d="M 15.222656 1.5136719 C 13.069055 1.6396879 11.599609 3.5886772 11.599609 6.8632812 L 11.599609 55.939453 C 11.599609 60.703842 14.708618 62.660708 18.509766 60.285156 L 57.833984 35.720703 C 61.632475 33.343823 61.632475 29.458207 57.833984 27.083984 L 18.509766 2.5175781 C 17.321907 1.7756335 16.201566 1.4563919 15.222656 1.5136719 z M 27.603516 21.708984 C 32.571158 21.708984 36.636719 25.773177 36.636719 30.740234 C 36.636719 32.641116 36.010477 34.338605 35.003906 35.791016 L 39.423828 39.912109 C 40.045053 40.531851 40.035926 41.529206 39.423828 42.158203 L 39.117188 42.464844 C 38.505089 43.093854 37.545053 43.135383 36.923828 42.515625 L 32.400391 38.291016 C 31.010318 39.171047 29.370494 39.669922 27.603516 39.669922 C 22.635875 39.669922 18.623047 35.707356 18.623047 30.740234 C 18.623047 25.77308 22.635875 21.708984 27.603516 21.708984 z M 27.65625 25.076172 C 24.485794 25.076172 21.888672 27.616862 21.888672 30.740234 C 21.888672 33.86359 24.485794 36.404297 27.65625 36.404297 C 30.826706 36.404297 33.371094 33.86359 33.371094 30.740234 C 33.371094 27.616862 30.826706 25.076172 27.65625 25.076172 z "
		id="path575" />
	<style type="text/css" id="style8">
      .Border { fill: lightGray; stroke: black; stroke-width: 4; }
      .Label { font-size:24; font-family:Arial; fill:black; }
   </style>
	<style type="text/css" id="style8-7">
      .Border { fill: lightGray; stroke: black; stroke-width: 4; }
      .Label { font-size:24; font-family:Arial; fill:black; }
   </style>
	<style type="text/css" id="style8-3">
      .Border { fill: lightGray; stroke: black; stroke-width: 4; }
      .Label { font-size:24; font-family:Arial; fill:black; }
   </style>
	<style type="text/css" id="style8-6">
      .Border { fill: lightGray; stroke: black; stroke-width: 4; }
      .Label { font-size:24; font-family:Arial; fill:black; }
   </style>
	<style id="style8-1" type="text/css">
      .Border { fill: lightGray; stroke: black; stroke-width: 4; }
      .Label { font-size:24; font-family:Arial; fill:black; }
   </style>
	<style id="style8-7-0" type="text/css">
      .Border { fill: lightGray; stroke: black; stroke-width: 4; }
      .Label { font-size:24; font-family:Arial; fill:black; }
   </style>
	<style id="style8-3-2" type="text/css">
      .Border { fill: lightGray; stroke: black; stroke-width: 4; }
      .Label { font-size:24; font-family:Arial; fill:black; }
   </style>
	<style id="style8-6-7" type="text/css">
      .Border { fill: lightGray; stroke: black; stroke-width: 4; }
      .Label { font-size:24; font-family:Arial; fill:black; }
   </style></svg>

<svg xmlns="http://www.w3.org/2000/svg" xmlns:osb="http://www.openswatchbook.org/uri/2009/osb" xmlns:xlink="http://www.w3.org/1999/xlink" xml:space="preserve" width="64" height="64"><defs><linearGradient osb:paint="solid" id="a" gradientTransform="matrix(0 0 0 0 -596.89 -437136.36)"><stop offset="0" style="stop-color:#666;stop-opacity:1"/></linearGradient></defs><use xlink:href="#g5796" width="1250" height="1250" transform="matrix(.9964 0 0 .99792 -114.076 -435.05)"/><use xlink:href="#g5796" width="1250" height="1250" transform="matrix(.98862 0 0 .99792 -113.482 -414.487)"/><path d="M6.124 3.058h66.949v66.949H6.124z" style="fill:none;stroke:none"/><use xlink:href="#rect4442" width="1250" height="1250" transform="translate(48.351 -59.626)"/><use xlink:href="#g5772" width="1250" height="1250" transform="matrix(.69291 0 0 .70953 -268.435 -359.468)"/><use xlink:href="#g5772" width="1250" height="1250" transform="matrix(.69583 0 0 .74192 -284.44 -364.882)"/><use xlink:href="#g5772" width="1250" height="1250" transform="matrix(.69583 0 0 .74192 -240.44 -367.382)"/><use xlink:href="#g5772" width="1250" height="1250" transform="matrix(.62898 0 0 1.16243 -165.682 -469.604)"/><use xlink:href="#rect10675" width="1250" height="1250" transform="translate(587.389 -340.79)"/><use xlink:href="#use5758" width="1250" height="1250" transform="translate(588.355 -324.068)"/><use xlink:href="#g6043" width="1250" height="1250" transform="translate(584.34 -400.145)"/><use xlink:href="#rect10675" width="1250" height="1250" transform="translate(629.372 -339.844)"/><use xlink:href="#rect10675" width="1250" height="1250" transform="translate(617.372 -327.844)"/><use xlink:href="#g6043" width="1250" height="1250" transform="translate(603.389 -406.188)"/><use xlink:href="#rect10675" width="1250" height="1250" transform="translate(648.42 -345.886)"/><use xlink:href="#rect10675" width="1250" height="1250" transform="translate(636.42 -333.886)"/><use xlink:href="#use5756-0-3" width="1250" height="1250" style="stroke:url(#a);stroke-opacity:1" transform="matrix(1.13774 0 0 1.13997 396.056 -336.236)"/><use xlink:href="#use5756-0-3" width="1250" height="1250" style="stroke:url(#a);stroke-opacity:1" transform="matrix(1.13774 0 0 1.13997 391.056 -329.008)"/><use xlink:href="#use5756-0-3" width="1250" height="1250" style="stroke:url(#a);stroke-opacity:1" transform="matrix(1.13774 0 0 1.13997 403.65 -325.358)"/><text xml:space="preserve" x="-458.621" y="35.908" style="font-size:40px;font-style:normal;font-weight:400;line-height:125%;letter-spacing:0;word-spacing:0;fill:#000;fill-opacity:1;stroke:none;font-family:Sans"/><use xlink:href="#g5796" width="1250" height="1250" transform="matrix(.9964 0 0 .99792 -39.298 -1028.139)"/><use xlink:href="#g5796" width="1250" height="1250" transform="matrix(.98862 0 0 .99792 -38.703 -1007.576)"/><use xlink:href="#rect4442" width="1250" height="1250" transform="translate(123.13 -652.715)"/><use xlink:href="#g5772" width="1250" height="1250" transform="matrix(.69291 0 0 .70953 -193.656 -952.557)"/><use xlink:href="#g5772" width="1250" height="1250" transform="matrix(.69583 0 0 .74192 -209.662 -957.971)"/><use xlink:href="#g5772" width="1250" height="1250" transform="matrix(.69583 0 0 .74192 -165.662 -960.471)"/><use xlink:href="#g5772" width="1250" height="1250" transform="matrix(.62898 0 0 1.16243 -90.903 -1062.693)"/><use xlink:href="#rect10675" width="1250" height="1250" transform="translate(662.168 -933.88)"/><use xlink:href="#use5758" width="1250" height="1250" transform="translate(663.134 -917.157)"/><use xlink:href="#g6043" width="1250" height="1250" transform="translate(659.12 -993.235)"/><use xlink:href="#rect10675" width="1250" height="1250" transform="translate(704.151 -932.933)"/><use xlink:href="#rect10675" width="1250" height="1250" transform="translate(692.151 -920.933)"/><use xlink:href="#g6043" width="1250" height="1250" transform="translate(678.168 -999.277)"/><use xlink:href="#rect10675" width="1250" height="1250" transform="translate(723.2 -938.975)"/><use xlink:href="#rect10675" width="1250" height="1250" transform="translate(711.2 -926.975)"/><use xlink:href="#use5756-0-3" width="1250" height="1250" style="stroke:url(#a);stroke-opacity:1" transform="matrix(1.13774 0 0 1.13997 470.835 -929.326)"/><use xlink:href="#use5756-0-3" width="1250" height="1250" style="stroke:url(#a);stroke-opacity:1" transform="matrix(1.13774 0 0 1.13997 465.835 -922.097)"/><use xlink:href="#use5756-0-3" width="1250" height="1250" style="stroke:url(#a);stroke-opacity:1" transform="matrix(1.13774 0 0 1.13997 478.428 -918.447)"/><text xml:space="preserve" x="-383.842" y="-557.181" style="font-style:normal;font-weight:400;font-size:40px;line-height:125%;font-family:Sans;letter-spacing:0;word-spacing:0;fill:#000;fill-opacity:1;stroke:none"/><path d="M15.223 1.514c-2.154.126-3.623 2.075-3.623 5.35v49.075c0 4.765 3.109 6.722 6.91 4.346l39.324-24.564c3.798-2.377 3.798-6.263 0-8.637L18.51 2.518c-1.188-.742-2.308-1.062-3.287-1.004zm12.38 20.195c4.968 0 9.034 4.064 9.034 9.031 0 1.901-.627 3.599-1.633 5.051l4.42 4.121c.621.62.612 1.617 0 2.246l-.307.307c-.612.629-1.572.67-2.193.05L32.4 38.292a8.917 8.917 0 0 1-4.796 1.379c-4.968 0-8.981-3.963-8.981-8.93s4.013-9.031 8.98-9.031zm.053 3.367c-3.17 0-5.767 2.54-5.767 5.664 0 3.124 2.597 5.664 5.767 5.664 3.17 0 5.715-2.54 5.715-5.664 0-3.123-2.544-5.664-5.715-5.664z" style="fill:silver;fill-opacity:1"/></svg>
